build/img/icons-corners.svg

<svg width="103" height="103" viewBox="0 0 103 103" fill="none" xmlns="http://www.w3.org/2000/svg">
<path d="M86.2627 38.1958H93.9877V9.01245L64.8044 9.01246L64.8044 16.7375L80.8003 16.7375L50.3295 47.2083L55.7919 52.6707L86.2627 22.1999V38.1958Z" fill="#D1D8E1"/>
<path d="M16.7377 22.3166C16.7377 21.6056 17.3141 21.0291 18.0252 21.0291L46.7794 21.0291V13.3041L18.0252 13.3041C13.0477 13.3041 9.0127 17.3392 9.0127 22.3166L9.0127 84.975C9.0127 89.9524 13.0477 93.9874 18.0252 93.9874L80.6835 93.9874C85.661 93.9874 89.696 89.9524 89.696 84.9749L89.696 56.2208H81.971L81.971 84.9749C81.971 85.686 81.3946 86.2625 80.6835 86.2625H18.0252C17.3141 86.2625 16.7377 85.686 16.7377 84.975L16.7377 22.3166Z" fill="#D1D8E1"/>
<path d="M9 37L9 23C9 17.4772 13.4772 13 19 13L33 13" stroke="black" stroke-width="2" stroke-linecap="round" stroke-linejoin="round"/>
</svg>

<svg width="103" height="103" viewBox="0 0 103 103" fill="none" xmlns="http://www.w3.org/2000/svg"><path d="M86.263 38.196h7.725V9.012H64.804v7.726H80.8l-30.47 30.47 5.462 5.463L86.262 22.2v15.996z" fill="#D1D8E1"/><path d="M16.738 22.317c0-.711.576-1.288 1.287-1.288H46.78v-7.725H18.025a9.013 9.013 0 00-9.012 9.013v62.658a9.012 9.012 0 009.012 9.012h62.659a9.012 9.012 0 009.012-9.012V56.22h-7.725v28.754c0 .711-.576 1.288-1.288 1.288H18.025a1.288 1.288 0 01-1.287-1.288V22.317z" fill="#D1D8E1"/><path d="M9 37V23c0-5.523 4.477-10 10-10h14" stroke="#000" stroke-width="2" stroke-linecap="round" stroke-linejoin="round"/></svg>
